images/3233789.svg

<?xml version="1.0" encoding="UTF-8"?>
<svg xmlns="http://www.w3.org/2000/svg" xmlns:xlink="http://www.w3.org/1999/xlink" width="300pt" height="300pt" viewBox="0 0 300 300" version="1.1">
<defs>
<g>
<symbol overflow="visible" id="glyph0-0">
<path style="stroke:none;" d="M 0.453125 1.59375 L 0.453125 -6.34375 L 4.953125 -6.34375 L 4.953125 1.59375 Z M 0.953125 1.09375 L 4.453125 1.09375 L 4.453125 -5.84375 L 0.953125 -5.84375 Z M 0.953125 1.09375 "/>
</symbol>
<symbol overflow="visible" id="glyph0-1">
<path style="stroke:none;" d="M 3.546875 -5.953125 C 2.898438 -5.953125 2.382812 -5.710938 2 -5.234375 C 1.625 -4.753906 1.4375 -4.101562 1.4375 -3.28125 C 1.4375 -2.445312 1.625 -1.789062 2 -1.3125 C 2.382812 -0.832031 2.898438 -0.59375 3.546875 -0.59375 C 4.191406 -0.59375 4.703125 -0.832031 5.078125 -1.3125 C 5.453125 -1.789062 5.640625 -2.445312 5.640625 -3.28125 C 5.640625 -4.101562 5.453125 -4.753906 5.078125 -5.234375 C 4.703125 -5.710938 4.191406 -5.953125 3.546875 -5.953125 Z M 3.546875 -6.6875 C 4.460938 -6.6875 5.195312 -6.375 5.75 -5.75 C 6.300781 -5.132812 6.578125 -4.3125 6.578125 -3.28125 C 6.578125 -2.238281 6.300781 -1.410156 5.75 -0.796875 C 5.195312 -0.179688 4.460938 0.125 3.546875 0.125 C 2.617188 0.125 1.878906 -0.179688 1.328125 -0.796875 C 0.773438 -1.410156 0.5 -2.238281 0.5 -3.28125 C 0.5 -4.3125 0.773438 -5.132812 1.328125 -5.75 C 1.878906 -6.375 2.617188 -6.6875 3.546875 -6.6875 Z M 3.546875 -6.6875 "/>
</symbol>
<symbol overflow="visible" id="glyph0-2">
<path style="stroke:none;" d="M 0.890625 -6.5625 L 2.078125 -6.5625 L 4.984375 -1.078125 L 4.984375 -6.5625 L 5.84375 -6.5625 L 5.84375 0 L 4.65625 0 L 1.75 -5.484375 L 1.75 0 L 0.890625 0 Z M 0.890625 -6.5625 "/>
</symbol>
<symbol overflow="visible" id="glyph0-3">
<path style="stroke:none;" d="M 0.890625 -6.5625 L 1.765625 -6.5625 L 1.765625 -3.875 L 5 -3.875 L 5 -6.5625 L 5.890625 -6.5625 L 5.890625 0 L 5 0 L 5 -3.125 L 1.765625 -3.125 L 1.765625 0 L 0.890625 0 Z M 0.890625 -6.5625 "/>
</symbol>
</g>
</defs>
<g id="surface48949">
<rect x="0" y="0" width="300" height="300" style="fill:rgb(100%,100%,100%);fill-opacity:1;stroke:none;"/>
<path style="fill:none;stroke-width:1.2;stroke-linecap:butt;stroke-linejoin:miter;stroke:rgb(0%,0%,0%);stroke-opacity:1;stroke-miterlimit:10;" d="M 51.808594 95.070312 L 45.871094 102.648438 "/>
<path style="fill:none;stroke-width:1.2;stroke-linecap:butt;stroke-linejoin:miter;stroke:rgb(100%,0%,0%);stroke-opacity:1;stroke-miterlimit:10;" d="M 45.871094 102.648438 L 39.933594 110.222656 "/>
<path style="fill:none;stroke-width:1.2;stroke-linecap:butt;stroke-linejoin:miter;stroke:rgb(100%,0%,0%);stroke-opacity:1;stroke-miterlimit:10;" d="M 39.933594 110.222656 L 43.527344 119.152344 "/>
<path style="fill:none;stroke-width:1.2;stroke-linecap:butt;stroke-linejoin:miter;stroke:rgb(0%,0%,0%);stroke-opacity:1;stroke-miterlimit:10;" d="M 43.527344 119.152344 L 47.121094 128.082031 "/>
<path style=" stroke:none;fill-rule:nonzero;fill:rgb(100%,100%,100%);fill-opacity:1;" d="M 35.933594 104.722656 L 43.933594 104.722656 L 43.933594 115.722656 L 35.933594 115.722656 Z M 35.933594 104.722656 "/>
<g style="fill:rgb(100%,0%,0%);fill-opacity:1;">
  <use xlink:href="#glyph0-1" x="35.933594" y="113.385742"/>
</g>
<path style="fill:none;stroke-width:1.2;stroke-linecap:butt;stroke-linejoin:miter;stroke:rgb(0%,0%,0%);stroke-opacity:1;stroke-miterlimit:10;" d="M 47.121094 128.082031 L 66.183594 130.789062 "/>
<path style="fill:none;stroke-width:1.2;stroke-linecap:butt;stroke-linejoin:miter;stroke:rgb(0%,0%,0%);stroke-opacity:1;stroke-miterlimit:10;" d="M 48.390625 132.839844 L 63.640625 135.003906 "/>
<path style="fill:none;stroke-width:1.2;stroke-linecap:butt;stroke-linejoin:miter;stroke:rgb(0%,0%,0%);stroke-opacity:1;stroke-miterlimit:10;" d="M 35.25 143.238281 L 47.121094 128.082031 "/>
<path style="fill:none;stroke-width:1.2;stroke-linecap:butt;stroke-linejoin:miter;stroke:rgb(0%,0%,0%);stroke-opacity:1;stroke-miterlimit:10;" d="M 66.183594 130.789062 L 73.371094 148.648438 "/>
<path style="fill:none;stroke-width:1.2;stroke-linecap:butt;stroke-linejoin:miter;stroke:rgb(0%,0%,0%);stroke-opacity:1;stroke-miterlimit:10;" d="M 73.371094 148.648438 L 61.496094 163.800781 "/>
<path style="fill:none;stroke-width:1.2;stroke-linecap:butt;stroke-linejoin:miter;stroke:rgb(0%,0%,0%);stroke-opacity:1;stroke-miterlimit:10;" d="M 68.617188 147.371094 L 59.121094 159.492188 "/>
<path style="fill:none;stroke-width:1.2;stroke-linecap:butt;stroke-linejoin:miter;stroke:rgb(0%,0%,0%);stroke-opacity:1;stroke-miterlimit:10;" d="M 61.496094 163.800781 L 42.4375 161.097656 "/>
<path style="fill:none;stroke-width:1.2;stroke-linecap:butt;stroke-linejoin:miter;stroke:rgb(0%,0%,0%);stroke-opacity:1;stroke-miterlimit:10;" d="M 61.496094 163.800781 L 68.683594 181.660156 "/>
<path style="fill:none;stroke-width:1.2;stroke-linecap:butt;stroke-linejoin:miter;stroke:rgb(0%,0%,0%);stroke-opacity:1;stroke-miterlimit:10;" d="M 42.4375 161.097656 L 35.25 143.238281 "/>
<path style="fill:none;stroke-width:1.2;stroke-linecap:butt;stroke-linejoin:miter;stroke:rgb(0%,0%,0%);stroke-opacity:1;stroke-miterlimit:10;" d="M 45.921875 157.621094 L 40.171875 143.332031 "/>
<path style="fill:none;stroke-width:1.2;stroke-linecap:butt;stroke-linejoin:miter;stroke:rgb(0%,0%,0%);stroke-opacity:1;stroke-miterlimit:10;" d="M 66.902344 180.265625 L 60.964844 187.839844 "/>
<path style="fill:none;stroke-width:1.2;stroke-linecap:butt;stroke-linejoin:miter;stroke:rgb(100%,0%,0%);stroke-opacity:1;stroke-miterlimit:10;" d="M 60.964844 187.839844 L 55.03125 195.417969 "/>
<path style="fill:none;stroke-width:1.2;stroke-linecap:butt;stroke-linejoin:miter;stroke:rgb(0%,0%,0%);stroke-opacity:1;stroke-miterlimit:10;" d="M 70.46875 183.058594 L 64.53125 190.636719 "/>
<path style="fill:none;stroke-width:1.2;stroke-linecap:butt;stroke-linejoin:miter;stroke:rgb(100%,0%,0%);stroke-opacity:1;stroke-miterlimit:10;" d="M 64.53125 190.636719 L 58.59375 198.210938 "/>
<path style="fill:none;stroke-width:1.2;stroke-linecap:butt;stroke-linejoin:miter;stroke:rgb(0%,0%,0%);stroke-opacity:1;stroke-miterlimit:10;" d="M 68.683594 181.660156 L 78.214844 183.011719 "/>
<path style="fill:none;stroke-width:1.2;stroke-linecap:butt;stroke-linejoin:miter;stroke:rgb(0%,0%,100%);stroke-opacity:1;stroke-miterlimit:10;" d="M 78.214844 183.011719 L 87.746094 184.367188 "/>
<path style=" stroke:none;fill-rule:nonzero;fill:rgb(100%,100%,100%);fill-opacity:1;" d="M 48.8125 191.316406 L 56.8125 191.316406 L 56.8125 202.316406 L 48.8125 202.316406 Z M 48.8125 191.316406 "/>
<g style="fill:rgb(100%,0%,0%);fill-opacity:1;">
  <use xlink:href="#glyph0-1" x="48.8125" y="199.979492"/>
</g>
<path style="fill:none;stroke-width:1.2;stroke-linecap:butt;stroke-linejoin:miter;stroke:rgb(0%,0%,100%);stroke-opacity:1;stroke-miterlimit:10;" d="M 87.746094 184.367188 L 91.339844 193.296875 "/>
<path style="fill:none;stroke-width:1.2;stroke-linecap:butt;stroke-linejoin:miter;stroke:rgb(0%,0%,0%);stroke-opacity:1;stroke-miterlimit:10;" d="M 91.339844 193.296875 L 94.933594 202.226562 "/>
<path style="fill:none;stroke-width:1.2;stroke-linecap:butt;stroke-linejoin:miter;stroke:rgb(0%,0%,0%);stroke-opacity:1;stroke-miterlimit:10;" d="M 99.617188 169.210938 L 93.683594 176.789062 "/>
<path style="fill:none;stroke-width:1.2;stroke-linecap:butt;stroke-linejoin:miter;stroke:rgb(0%,0%,100%);stroke-opacity:1;stroke-miterlimit:10;" d="M 93.683594 176.789062 L 87.746094 184.367188 "/>
<path style=" stroke:none;fill-rule:nonzero;fill:rgb(100%,100%,100%);fill-opacity:1;" d="M 84.746094 178.867188 L 91.746094 178.867188 L 91.746094 189.867188 L 84.746094 189.867188 Z M 84.746094 178.867188 "/>
<g style="fill:rgb(0%,0%,100%);fill-opacity:1;">
  <use xlink:href="#glyph0-2" x="84.746094" y="187.530273"/>
</g>
<path style="fill:none;stroke-width:1.2;stroke-linecap:butt;stroke-linejoin:miter;stroke:rgb(0%,0%,0%);stroke-opacity:1;stroke-miterlimit:10;" d="M 94.933594 202.226562 L 113.992188 204.929688 "/>
<path style="fill:none;stroke-width:1.2;stroke-linecap:butt;stroke-linejoin:miter;stroke:rgb(0%,0%,0%);stroke-opacity:1;stroke-miterlimit:10;" d="M 113.992188 204.929688 L 125.867188 189.777344 "/>
<path style="fill:none;stroke-width:1;stroke-linecap:butt;stroke-linejoin:miter;stroke:rgb(0%,0%,0%);stroke-opacity:1;stroke-miterlimit:10;" d="M 118.679688 171.917969 L 118.679688 171.917969 M 119.296875 174.851562 L 120.265625 174.460938 M 119.917969 177.789062 L 121.851562 177.007812 M 120.535156 180.722656 L 123.4375 179.554688 M 121.15625 183.660156 L 125.027344 182.101562 M 121.777344 186.59375 L 126.613281 184.648438 M 122.394531 189.527344 L 128.199219 187.191406 M 122.714844 191.042969 L 129.019531 188.507812 "/>
<path style="fill:none;stroke-width:1.2;stroke-linecap:butt;stroke-linejoin:miter;stroke:rgb(0%,0%,0%);stroke-opacity:1;stroke-miterlimit:10;" d="M 118.679688 171.917969 L 99.617188 169.210938 "/>
<path style="fill:none;stroke-width:1.2;stroke-linecap:butt;stroke-linejoin:miter;stroke:rgb(0%,0%,0%);stroke-opacity:1;stroke-miterlimit:10;" d="M 118.679688 171.917969 L 113.398438 153.402344 "/>
<path style="fill:none;stroke-width:1.2;stroke-linecap:butt;stroke-linejoin:miter;stroke:rgb(0%,0%,0%);stroke-opacity:1;stroke-miterlimit:10;" d="M 137.917969 172.613281 L 118.679688 171.917969 "/>
<path style="fill:none;stroke-width:1.2;stroke-linecap:butt;stroke-linejoin:miter;stroke:rgb(0%,0%,0%);stroke-opacity:1;stroke-miterlimit:10;" d="M 113.398438 153.402344 L 129.371094 142.660156 "/>
<path style="fill:none;stroke-width:1.2;stroke-linecap:butt;stroke-linejoin:miter;stroke:rgb(0%,0%,0%);stroke-opacity:1;stroke-miterlimit:10;" d="M 129.371094 142.660156 L 136.949219 148.597656 "/>
<path style="fill:none;stroke-width:1.2;stroke-linecap:butt;stroke-linejoin:miter;stroke:rgb(0%,0%,100%);stroke-opacity:1;stroke-miterlimit:10;" d="M 136.949219 148.597656 L 144.527344 154.535156 "/>
<path style="fill:none;stroke-width:1.2;stroke-linecap:butt;stroke-linejoin:miter;stroke:rgb(0%,0%,100%);stroke-opacity:1;stroke-miterlimit:10;" d="M 144.527344 154.535156 L 141.222656 163.574219 "/>
<path style="fill:none;stroke-width:1.2;stroke-linecap:butt;stroke-linejoin:miter;stroke:rgb(0%,0%,0%);stroke-opacity:1;stroke-miterlimit:10;" d="M 141.222656 163.574219 L 137.917969 172.613281 "/>
<path style="fill:none;stroke-width:1.2;stroke-linecap:butt;stroke-linejoin:miter;stroke:rgb(0%,0%,100%);stroke-opacity:1;stroke-miterlimit:10;" d="M 144.527344 154.535156 L 153.78125 151.894531 "/>
<path style="fill:none;stroke-width:1.2;stroke-linecap:butt;stroke-linejoin:miter;stroke:rgb(0%,0%,0%);stroke-opacity:1;stroke-miterlimit:10;" d="M 153.78125 151.894531 L 163.039062 149.25 "/>
<path style=" stroke:none;fill-rule:nonzero;fill:rgb(100%,100%,100%);fill-opacity:1;" d="M 141.527344 149.035156 L 148.527344 149.035156 L 148.527344 160.035156 L 141.527344 160.035156 Z M 141.527344 149.035156 "/>
<g style="fill:rgb(0%,0%,100%);fill-opacity:1;">
  <use xlink:href="#glyph0-2" x="141.527344" y="157.698242"/>
</g>
<path style="fill:none;stroke-width:1.2;stroke-linecap:butt;stroke-linejoin:miter;stroke:rgb(0%,0%,0%);stroke-opacity:1;stroke-miterlimit:10;" d="M 165.234375 149.804688 L 167.578125 140.464844 "/>
<path style="fill:none;stroke-width:1.2;stroke-linecap:butt;stroke-linejoin:miter;stroke:rgb(100%,0%,0%);stroke-opacity:1;stroke-miterlimit:10;" d="M 167.578125 140.464844 L 169.917969 131.128906 "/>
<path style="fill:none;stroke-width:1.2;stroke-linecap:butt;stroke-linejoin:miter;stroke:rgb(0%,0%,0%);stroke-opacity:1;stroke-miterlimit:10;" d="M 160.84375 148.699219 L 163.183594 139.363281 "/>
<path style="fill:none;stroke-width:1.2;stroke-linecap:butt;stroke-linejoin:miter;stroke:rgb(100%,0%,0%);stroke-opacity:1;stroke-miterlimit:10;" d="M 163.183594 139.363281 L 165.523438 130.027344 "/>
<path style="fill:none;stroke-width:1.2;stroke-linecap:butt;stroke-linejoin:miter;stroke:rgb(0%,0%,0%);stroke-opacity:1;stroke-miterlimit:10;" d="M 163.039062 149.25 L 169.953125 155.949219 "/>
<path style="fill:none;stroke-width:1.2;stroke-linecap:butt;stroke-linejoin:miter;stroke:rgb(0%,0%,100%);stroke-opacity:1;stroke-miterlimit:10;" d="M 169.953125 155.949219 L 176.867188 162.644531 "/>
<path style=" stroke:none;fill-rule:nonzero;fill:rgb(100%,100%,100%);fill-opacity:1;" d="M 163.722656 125.078125 L 171.722656 125.078125 L 171.722656 136.078125 L 163.722656 136.078125 Z M 163.722656 125.078125 "/>
<g style="fill:rgb(100%,0%,0%);fill-opacity:1;">
  <use xlink:href="#glyph0-1" x="163.722656" y="133.741211"/>
</g>
<path style="fill:none;stroke-width:1.2;stroke-linecap:butt;stroke-linejoin:miter;stroke:rgb(0%,0%,100%);stroke-opacity:1;stroke-miterlimit:10;" d="M 176.867188 162.644531 L 186.125 160.003906 "/>
<path style="fill:none;stroke-width:1.2;stroke-linecap:butt;stroke-linejoin:miter;stroke:rgb(0%,0%,0%);stroke-opacity:1;stroke-miterlimit:10;" d="M 186.125 160.003906 L 195.382812 157.363281 "/>
<path style=" stroke:none;fill-rule:nonzero;fill:rgb(100%,100%,100%);fill-opacity:1;" d="M 169.867188 157.144531 L 183.867188 157.144531 L 183.867188 168.144531 L 169.867188 168.144531 Z M 169.867188 157.144531 "/>
<g style="fill:rgb(0%,0%,100%);fill-opacity:1;">
  <use xlink:href="#glyph0-2" x="169.867188" y="165.807617"/>
  <use xlink:href="#glyph0-3" x="176.844727" y="165.807617"/>
</g>
<path style="fill:none;stroke-width:1.2;stroke-linecap:butt;stroke-linejoin:miter;stroke:rgb(0%,0%,0%);stroke-opacity:1;stroke-miterlimit:10;" d="M 195.382812 157.363281 L 209.210938 170.753906 "/>
<path style="fill:none;stroke-width:1.2;stroke-linecap:butt;stroke-linejoin:miter;stroke:rgb(0%,0%,0%);stroke-opacity:1;stroke-miterlimit:10;" d="M 199.914062 155.449219 L 210.980469 166.160156 "/>
<path style="fill:none;stroke-width:1.2;stroke-linecap:butt;stroke-linejoin:miter;stroke:rgb(0%,0%,0%);stroke-opacity:1;stroke-miterlimit:10;" d="M 200.0625 138.6875 L 195.382812 157.363281 "/>
<path style="fill:none;stroke-width:1.2;stroke-linecap:butt;stroke-linejoin:miter;stroke:rgb(0%,0%,0%);stroke-opacity:1;stroke-miterlimit:10;" d="M 209.210938 170.753906 L 227.722656 165.472656 "/>
<path style="fill:none;stroke-width:1.2;stroke-linecap:butt;stroke-linejoin:miter;stroke:rgb(0%,0%,0%);stroke-opacity:1;stroke-miterlimit:10;" d="M 227.722656 165.472656 L 232.40625 146.800781 "/>
<path style="fill:none;stroke-width:1.2;stroke-linecap:butt;stroke-linejoin:miter;stroke:rgb(0%,0%,0%);stroke-opacity:1;stroke-miterlimit:10;" d="M 223.800781 162.503906 L 227.546875 147.566406 "/>
<path style="fill:none;stroke-width:1.2;stroke-linecap:butt;stroke-linejoin:miter;stroke:rgb(0%,0%,0%);stroke-opacity:1;stroke-miterlimit:10;" d="M 232.40625 146.800781 L 218.578125 133.40625 "/>
<path style="fill:none;stroke-width:1.2;stroke-linecap:butt;stroke-linejoin:miter;stroke:rgb(0%,0%,0%);stroke-opacity:1;stroke-miterlimit:10;" d="M 232.40625 146.800781 L 241.664062 144.160156 "/>
<path style="fill:none;stroke-width:1.2;stroke-linecap:butt;stroke-linejoin:miter;stroke:rgb(100%,0%,0%);stroke-opacity:1;stroke-miterlimit:10;" d="M 241.664062 144.160156 L 250.917969 141.519531 "/>
<path style="fill:none;stroke-width:1.2;stroke-linecap:butt;stroke-linejoin:miter;stroke:rgb(0%,0%,0%);stroke-opacity:1;stroke-miterlimit:10;" d="M 218.578125 133.40625 L 200.0625 138.6875 "/>
<path style="fill:none;stroke-width:1.2;stroke-linecap:butt;stroke-linejoin:miter;stroke:rgb(0%,0%,0%);stroke-opacity:1;stroke-miterlimit:10;" d="M 217.96875 138.292969 L 203.160156 142.515625 "/>
<path style="fill:none;stroke-width:1.2;stroke-linecap:butt;stroke-linejoin:miter;stroke:rgb(100%,0%,0%);stroke-opacity:1;stroke-miterlimit:10;" d="M 250.917969 141.519531 L 257.835938 148.214844 "/>
<path style="fill:none;stroke-width:1.2;stroke-linecap:butt;stroke-linejoin:miter;stroke:rgb(0%,0%,0%);stroke-opacity:1;stroke-miterlimit:10;" d="M 257.835938 148.214844 L 264.75 154.910156 "/>
<path style=" stroke:none;fill-rule:nonzero;fill:rgb(100%,100%,100%);fill-opacity:1;" d="M 246.917969 136.019531 L 254.917969 136.019531 L 254.917969 147.019531 L 246.917969 147.019531 Z M 246.917969 136.019531 "/>
<g style="fill:rgb(100%,0%,0%);fill-opacity:1;">
  <use xlink:href="#glyph0-1" x="246.917969" y="144.682617"/>
</g>
</g>
</svg>

<svg xmlns="http://www.w3.org/2000/svg" xmlns:xlink="http://www.w3.org/1999/xlink" width="300pt" height="300pt" viewBox="0 0 300 300"><defs><symbol overflow="visible"><path d="M.453 1.594v-7.938h4.5v7.938zm.5-.5h3.5v-6.938h-3.5zm0 0"/></symbol><symbol overflow="visible" id="a"><path d="M3.547-5.953c-.65 0-1.164.242-1.547.72-.375.48-.563 1.13-.563 1.952 0 .835.188 1.49.563 1.967.383.48.898.72 1.547.72.644 0 1.156-.24 1.53-.72.376-.476.564-1.132.564-1.968 0-.822-.187-1.474-.562-1.954-.375-.477-.887-.72-1.53-.72zm0-.734c.914 0 1.648.312 2.203.937.55.617.828 1.438.828 2.47 0 1.042-.277 1.87-.828 2.483-.555.617-1.29.922-2.203.922-.93 0-1.668-.305-2.22-.922C.774-1.41.5-2.237.5-3.28c0-1.033.273-1.853.828-2.47.55-.625 1.29-.938 2.22-.938zm0 0"/></symbol><symbol overflow="visible" id="b"><path d="M.89-6.563H2.08l2.906 5.485v-5.484h.86V0H4.656L1.75-5.484V0H.89zm0 0"/></symbol><symbol overflow="visible" id="c"><path d="M.89-6.563h.876v2.688H5v-2.688h.89V0H5v-3.125H1.766V0H.89zm0 0"/></symbol></defs><g><path fill="#fff" d="M0 0h300v300H0z"/><path d="M51.81 95.07l-5.94 7.578" stroke-width="1.2" stroke="#000" stroke-miterlimit="10" fill="none"/><path d="M45.87 102.648l-5.936 7.575M39.934 110.223l3.593 8.93" stroke-width="1.2" stroke="#f00" stroke-miterlimit="10" fill="none"/><path d="M43.527 119.152l3.594 8.93" stroke-width="1.2" stroke="#000" stroke-miterlimit="10" fill="none"/><path d="M35.934 104.723h8v11h-8zm0 0" fill="#fff"/><use xlink:href="#a" x="35.934" y="113.386" fill="#f00"/><path d="M47.12 128.082l19.064 2.707M48.39 132.84l15.25 2.164M35.25 143.238l11.87-15.156M66.184 130.79l7.187 17.858M73.37 148.648L61.497 163.8M68.617 147.37l-9.496 12.122M61.496 163.8l-19.06-2.702M61.496 163.8l7.188 17.86M42.438 161.098l-7.188-17.86M45.922 157.62l-5.75-14.288M66.902 180.266l-5.937 7.574" stroke-width="1.2" stroke="#000" stroke-miterlimit="10" fill="none"/><path d="M60.965 187.84l-5.934 7.578" stroke-width="1.2" stroke="#f00" stroke-miterlimit="10" fill="none"/><path d="M70.47 183.06l-5.94 7.577" stroke-width="1.2" stroke="#000" stroke-miterlimit="10" fill="none"/><path d="M64.53 190.637l-5.936 7.574" stroke-width="1.2" stroke="#f00" stroke-miterlimit="10" fill="none"/><path d="M68.684 181.66l9.53 1.352" stroke-width="1.2" stroke="#000" stroke-miterlimit="10" fill="none"/><path d="M78.215 183.012l9.53 1.355" stroke-width="1.2" stroke="#00f" stroke-miterlimit="10" fill="none"/><path d="M48.813 191.316h8v11h-8zm0 0" fill="#fff"/><use xlink:href="#a" x="48.813" y="199.979" fill="#f00"/><path d="M87.746 184.367l3.594 8.93" stroke-width="1.2" stroke="#00f" stroke-miterlimit="10" fill="none"/><path d="M91.34 193.297l3.594 8.93M99.617 169.21l-5.933 7.58" stroke-width="1.2" stroke="#000" stroke-miterlimit="10" fill="none"/><path d="M93.684 176.79l-5.938 7.577" stroke-width="1.2" stroke="#00f" stroke-miterlimit="10" fill="none"/><path d="M84.746 178.867h7v11h-7zm0 0" fill="#fff"/><use xlink:href="#b" x="84.746" y="187.53" fill="#00f"/><path d="M94.934 202.227l19.058 2.703M113.992 204.93l11.875-15.153" stroke-width="1.2" stroke="#000" stroke-miterlimit="10" fill="none"/><path d="M118.68 171.918m.617 2.934l.97-.39m-.35 3.327l1.935-.782m-1.317 3.715l2.903-1.168m-2.282 4.105l3.87-1.558m-3.25 4.492l4.837-1.946m-4.218 4.88l5.804-2.337m-5.485 3.853l6.305-2.535" stroke="#000" stroke-miterlimit="10" fill="none"/><path d="M118.68 171.918l-19.063-2.707M118.68 171.918l-5.282-18.516M137.918 172.613l-19.238-.695M113.398 153.402l15.973-10.742M129.37 142.66l7.58 5.938" stroke-width="1.2" stroke="#000" stroke-miterlimit="10" fill="none"/><path d="M136.95 148.598l7.577 5.937M144.527 154.535l-3.304 9.04" stroke-width="1.2" stroke="#00f" stroke-miterlimit="10" fill="none"/><path d="M141.223 163.574l-3.305 9.04" stroke-width="1.2" stroke="#000" stroke-miterlimit="10" fill="none"/><path d="M144.527 154.535l9.254-2.64" stroke-width="1.2" stroke="#00f" stroke-miterlimit="10" fill="none"/><path d="M153.78 151.895l9.26-2.645" stroke-width="1.2" stroke="#000" stroke-miterlimit="10" fill="none"/><path d="M141.527 149.035h7v11h-7zm0 0" fill="#fff"/><use xlink:href="#b" x="141.527" y="157.698" fill="#00f"/><path d="M165.234 149.805l2.344-9.34" stroke-width="1.2" stroke="#000" stroke-miterlimit="10" fill="none"/><path d="M167.578 140.465l2.34-9.336" stroke-width="1.2" stroke="#f00" stroke-miterlimit="10" fill="none"/><path d="M160.844 148.7l2.34-9.337" stroke-width="1.2" stroke="#000" stroke-miterlimit="10" fill="none"/><path d="M163.184 139.363l2.34-9.336" stroke-width="1.2" stroke="#f00" stroke-miterlimit="10" fill="none"/><path d="M163.04 149.25l6.913 6.7" stroke-width="1.2" stroke="#000" stroke-miterlimit="10" fill="none"/><path d="M169.953 155.95l6.914 6.695" stroke-width="1.2" stroke="#00f" stroke-miterlimit="10" fill="none"/><path d="M163.723 125.078h8v11h-8zm0 0" fill="#fff"/><use xlink:href="#a" x="163.723" y="133.741" fill="#f00"/><path d="M176.867 162.645l9.258-2.64" stroke-width="1.2" stroke="#00f" stroke-miterlimit="10" fill="none"/><path d="M186.125 160.004l9.258-2.64" stroke-width="1.2" stroke="#000" stroke-miterlimit="10" fill="none"/><path d="M169.867 157.145h14v11h-14zm0 0" fill="#fff"/><g fill="#00f"><use xlink:href="#b" x="169.867" y="165.808"/><use xlink:href="#c" x="176.845" y="165.808"/></g><path d="M195.383 157.363l13.828 13.39M199.914 155.45l11.066 10.71M200.063 138.688l-4.68 18.675M209.21 170.754l18.513-5.28M227.723 165.473l4.683-18.672M223.8 162.504l3.747-14.938M232.406 146.8l-13.828-13.394M232.406 146.8l9.258-2.64" stroke-width="1.2" stroke="#000" stroke-miterlimit="10" fill="none"/><path d="M241.664 144.16l9.254-2.64" stroke-width="1.2" stroke="#f00" stroke-miterlimit="10" fill="none"/><path d="M218.578 133.406l-18.516 5.28M217.97 138.293l-14.81 4.223" stroke-width="1.2" stroke="#000" stroke-miterlimit="10" fill="none"/><path d="M250.918 141.52l6.918 6.695" stroke-width="1.2" stroke="#f00" stroke-miterlimit="10" fill="none"/><path d="M257.836 148.215l6.914 6.695" stroke-width="1.2" stroke="#000" stroke-miterlimit="10" fill="none"/><path d="M246.918 136.02h8v11h-8zm0 0" fill="#fff"/><use xlink:href="#a" x="246.918" y="144.683" fill="#f00"/></g></svg>
